X: 1
T: Healy's House
R: reel
M: 4/4
L: 1/8
K: Dmaj
|:A|DEFG ABcA|defa gefe|dcAG FGAB|=cBcG~E2GE|
DEFA GEAG|FAce ~d3e|fage fded|cAGE FDD:|
|:g|fdec AdBd|=cAGE AEGE|FDEG ABce|dfeg fdfg|
afge dcAG|ADFA Bdg2|fded cABd|cAGE D3:|

composer: Richard Dwyer
